48x48/apps/freegish.svg

<svg xmlns="http://www.w3.org/2000/svg" height="48" width="48" version="1.1" xmlns:xlink="http://www.w3.org/1999/xlink">
 <g transform="translate(.101562 .023391)">
  <path style="opacity:.2" d="m24 39c-20.025144 0-20.025144-10.012572-20.025144-10.012572s0-20.025144 20.025144-20.025144c20.025143 0 20.025143 20.025144 20.025143 20.025144s0 10.012572-20.025143 10.012572z"/>
  <path style="fill:#4f4f4f" d="m24.025144 38.037716c-20.025144 0-20.025144-10.012572-20.025144-10.012572s0-20.025144 20.025144-20.025144c20.025143 0 20.025143 20.025144 20.025143 20.025144s0 10.012572-20.025143 10.012572z"/>
  <path style="opacity:.2" d="m36 22c-4.291102 0-10 7-10 7l10.003906 0.02539c4.9968-0.025139 4.996094-7.02539-0.0039-7.02539zm-24.251953 0.02539c-5 0-5.000706 7.000247-0.0039 7.025391l10.0039-0.02539s-5.708898-7-10-7.000001z"/>
  <path style="fill:#ff3737" d="m36.251953 20.974609c-4.291102 0-10 7-10 7l10.003906 0.025391c4.9968-0.02514 4.996094-7.025391-0.0039-7.025391zm-24.251953 0.025391c-5 0-5.0007063 7.000247-0.0039 7.025391l10.0039-0.025391s-5.708898-7-10-7z"/>
  <path style="opacity:.1;fill:#f4f4f7" d="m24 7.9628906c-20.025144 0-20.025391 20.02539-20.025391 20.02539s0.011264 0.163324 0.029297 0.332031c0.1699151-3.166026 1.9120315-19.357421 19.996094-19.357421 18.084061 0 19.826178 16.191395 19.996094 19.357421 0.01803-0.168707 0.0293-0.332031 0.0293-0.332031s-0.000248-20.02539-20.025391-20.02539z"/>
  <path style="opacity:.2;fill:#f4f4f7" d="m36.251953 20.974609c-4.291102 0-10 7-10 7l0.646485 0.002c1.747864-1.92243 5.814807-5.976609 9.101562-5.976609 2.674422 0 3.904668 2.002242 3.71875 3.869141 0.863035-2.067755-0.287381-4.894532-3.466797-4.894532zm-24.251953 0.025391c-2.3264641 0-3.5548216 1.517357-3.7167969 3.140625 0.4947364-1.182171 1.6435797-2.115234 3.4648439-2.115234 3.287704 0 7.356516 4.054886 9.103515 5.976562l1.148438-0.001953s-5.708898-7-10-7z"/>
 </g>
</svg>

<svg xmlns="http://www.w3.org/2000/svg" height="48" width="48"><path style="opacity:.2" d="M24 39C3.975 39 3.975 28.987 3.975 28.987S3.975 8.962 24 8.962s20.025 20.025 20.025 20.025S44.025 39 24 39z" transform="translate(.102 .023)"/><path style="fill:#4f4f4f" d="M24.025 38.038C4 38.038 4 28.025 4 28.025S4 8 24.025 8 44.05 28.025 44.05 28.025s0 10.013-20.025 10.013z" transform="translate(.102 .023)"/><path style="opacity:.2" d="M36 22c-4.291 0-10 7-10 7l10.004.025C41 29 41 22 36 22zm-24.252.025c-5 0-5 7-.004 7.026l10.004-.026s-5.709-7-10-7z" transform="translate(.102 .023)"/><path style="fill:#ff3737" d="M36.252 20.975c-4.291 0-10 7-10 7L36.256 28c4.997-.025 4.996-7.025-.004-7.025zM12 21c-5 0-5 7-.004 7.025L22 28s-5.709-7-10-7z" transform="translate(.102 .023)"/><path style="opacity:.1;fill:#f4f4f7" d="M24 7.963c-20.025 0-20.025 20.025-20.025 20.025s.01.164.029.332C4.174 25.154 5.916 8.963 24 8.963S43.826 25.154 43.996 28.32c.018-.168.03-.332.03-.332S44.025 7.963 24 7.963z" transform="translate(.102 .023)"/><path style="opacity:.2;fill:#f4f4f7" d="M36.252 20.975c-4.291 0-10 7-10 7l.646.002C28.646 26.054 32.713 22 36 22c2.674 0 3.905 2.002 3.719 3.87.863-2.069-.288-4.895-3.467-4.895zM12 21c-2.326 0-3.555 1.517-3.717 3.14.495-1.182 1.644-2.115 3.465-2.115 3.288 0 7.357 4.055 9.104 5.977L22 28s-5.709-7-10-7z" transform="translate(.102 .023)"/></svg>
